X:41
T:THE WHITE HART
B:John of the Greeny Cheshire Way
N:\251 John Offord, Reproduced with permission
M:3/2
L:1/8
K:G
P:1
G2 d2 G2 ABcBAG | F2 A4 D2 F2 A2 | G2 d2 G2 ABcBAG | D2 G4 D2 F2 A2 ||
P:2
G2 g2 f2 efgfed | f2 A4 D2 F2 A2 | G2 g2 f2 efgfed | B2 G4 D2 F2 A2 ||
P:3
GABA GABA GABA | f2 G4 D2 F2 A2 | GABA GABA GABG | g2 G4 D2 F2 A2 ||
P:4
B4 c4 d4 | G2 ABcBAG F2 A2 | B4 c4 defd | g2 G4 D2 F2 A2 ||
P:5
B4 c4 d4 | G2 ABcBAG F2 A2 | B2 d2 c2 e2 d2 f2 | g2 G4 D2 F2 A2 ||
P:6
B2 AB c2 Bc defd | f2 A4 D2 F2 A2 | B2 d2 c2 e2 d2 f2 | g2 G4 D2 F2 A2 |]
